cursors/src/svg/default.svg

<?xml version="1.0" encoding="UTF-8" standalone="no"?>
<svg
   xmlns:dc="http://purl.org/dc/elements/1.1/"
   xmlns:cc="http://creativecommons.org/ns#"
   xmlns:rdf="http://www.w3.org/1999/02/22-rdf-syntax-ns#"
   xmlns:svg="http://www.w3.org/2000/svg"
   xmlns="http://www.w3.org/2000/svg"
   xmlns:sodipodi="http://sodipodi.sourceforge.net/DTD/sodipodi-0.dtd"
   xmlns:inkscape="http://www.inkscape.org/namespaces/inkscape"
   width="32"
   height="32"
   version="1.1"
   viewBox="0 0 32 32"
   id="svg19"
   sodipodi:docname="default.svg"
   inkscape:version="1.0.2 (e86c870879, 2021-01-15)">
  <metadata
     id="metadata23">
    <rdf:RDF>
      <cc:Work
         rdf:about="">
        <dc:format>image/svg+xml</dc:format>
        <dc:type
           rdf:resource="http://purl.org/dc/dcmitype/StillImage" />
      </cc:Work>
    </rdf:RDF>
  </metadata>
  <sodipodi:namedview
     pagecolor="#f5f5f5"
     bordercolor="#666666"
     borderopacity="1"
     objecttolerance="10"
     gridtolerance="10"
     guidetolerance="10"
     inkscape:pageopacity="0"
     inkscape:pageshadow="2"
     inkscape:window-width="1366"
     inkscape:window-height="697"
     id="namedview21"
     showgrid="true"
     inkscape:zoom="16"
     inkscape:cx="12.621724"
     inkscape:cy="15.888523"
     inkscape:window-x="0"
     inkscape:window-y="0"
     inkscape:window-maximized="1"
     inkscape:current-layer="svg19"
     inkscape:document-rotation="0"
     inkscape:snap-global="true"
     inkscape:snap-bbox="true"
     inkscape:bbox-nodes="true"
     inkscape:snap-bbox-edge-midpoints="true">
    <inkscape:grid
       type="xygrid"
       id="grid840" />
  </sodipodi:namedview>
  <defs
     id="defs5">
    <filter
       inkscape:collect="always"
       style="color-interpolation-filters:sRGB"
       id="filter880"
       x="-0.21335452"
       width="1.426709"
       y="-0.14587938"
       height="1.2917588">
      <feGaussianBlur
         inkscape:collect="always"
         stdDeviation="1.1584939"
         id="feGaussianBlur882" />
    </filter>
  </defs>
  <g
     id="g887">
    <path
       style="color:#000000;font-style:normal;font-variant:normal;font-weight:normal;font-stretch:normal;font-size:medium;line-height:normal;font-family:sans-serif;font-variant-ligatures:normal;font-variant-position:normal;font-variant-caps:normal;font-variant-numeric:normal;font-variant-alternates:normal;font-variant-east-asian:normal;font-feature-settings:normal;font-variation-settings:normal;text-indent:0;text-align:start;text-decoration:none;text-decoration-line:none;text-decoration-style:solid;text-decoration-color:#000000;letter-spacing:normal;word-spacing:normal;text-transform:none;writing-mode:lr-tb;direction:ltr;text-orientation:mixed;dominant-baseline:auto;baseline-shift:baseline;text-anchor:start;white-space:normal;shape-padding:0;shape-margin:0;inline-size:0;clip-rule:nonzero;display:inline;overflow:visible;visibility:visible;opacity:0.35;isolation:auto;mix-blend-mode:normal;color-interpolation:sRGB;color-interpolation-filters:linearRGB;solid-color:#000000;solid-opacity:1;vector-effect:none;fill:#000000;fill-opacity:1;fill-rule:nonzero;stroke:none;stroke-linecap:round;stroke-linejoin:round;stroke-miterlimit:4;stroke-dasharray:none;stroke-dashoffset:0;stroke-opacity:1;paint-order:stroke fill markers;filter:url(#filter880);color-rendering:auto;image-rendering:auto;shape-rendering:auto;text-rendering:auto;enable-background:accumulate;stop-color:#000000"
       d="M 5.0039062,5.1601396 C 4.4501195,5.158032 4.0000514,5.6063489 4,6.1601396 V 21.392562 c 7.644e-4,0.71775 0.7349599,1.201044 1.3945312,0.917969 1.7804531,-0.76319 3.8363028,-0.15053 4.9082028,1.46289 0.267247,0.401647 0.783132,0.555263 1.226563,0.365235 l 1.988281,-0.851563 c 0.443898,-0.189877 0.688775,-0.66977 0.582031,-1.140625 -0.429337,-1.889041 0.543666,-3.799322 2.324219,-4.5625 0.661319,-0.282103 0.817814,-1.149004 0.296875,-1.644531 L 5.6894531,5.4355302 C 5.5044619,5.2595999 5.2591949,5.1610738 5.0039062,5.1601396 Z"
       id="path878"
       sodipodi:nodetypes="cccccccccccc" />
    <path
       style="color:#000000;font-style:normal;font-variant:normal;font-weight:normal;font-stretch:normal;font-size:medium;line-height:normal;font-family:sans-serif;font-variant-ligatures:normal;font-variant-position:normal;font-variant-caps:normal;font-variant-numeric:normal;font-variant-alternates:normal;font-variant-east-asian:normal;font-feature-settings:normal;font-variation-settings:normal;text-indent:0;text-align:start;text-decoration:none;text-decoration-line:none;text-decoration-style:solid;text-decoration-color:#000000;letter-spacing:normal;word-spacing:normal;text-transform:none;writing-mode:lr-tb;direction:ltr;text-orientation:mixed;dominant-baseline:auto;baseline-shift:baseline;text-anchor:start;white-space:normal;shape-padding:0;shape-margin:0;inline-size:0;clip-rule:nonzero;display:inline;overflow:visible;visibility:visible;isolation:auto;mix-blend-mode:normal;color-interpolation:sRGB;color-interpolation-filters:linearRGB;solid-color:#000000;solid-opacity:1;vector-effect:none;fill:#ffffff;fill-opacity:1;fill-rule:nonzero;stroke:none;stroke-linecap:round;stroke-linejoin:round;stroke-miterlimit:4;stroke-dasharray:none;stroke-dashoffset:0;stroke-opacity:1;paint-order:stroke fill markers;color-rendering:auto;image-rendering:auto;shape-rendering:auto;text-rendering:auto;enable-background:accumulate;stop-color:#000000"
       d="M 5.0039062,4 A 1.0001,1.0001 0 0 0 4,5 v 15.232422 a 1.0001,1.0001 0 0 0 1.3945312,0.917969 c 1.7804531,-0.76319 3.8363028,-0.15053 4.9082028,1.46289 a 1.0001,1.0001 0 0 0 1.226563,0.365235 l 1.988281,-0.851563 a 1.0001,1.0001 0 0 0 0.582031,-1.140625 c -0.429337,-1.889041 0.543666,-3.799322 2.324219,-4.5625 a 1.0001,1.0001 0 0 0 0.296875,-1.644531 L 5.6894531,4.2753906 A 1.0001,1.0001 0 0 0 5.0039062,4 Z M 6,7.3339844 14.439453,15.371094 c -1.614317,1.220341 -2.485072,3.144958 -2.332031,5.185547 L 11.363281,20.875 C 9.990558,19.357281 7.9971354,18.660209 6,18.988281 Z"
       id="path872" />
    <path
       style="color:#000000;font-style:normal;font-variant:normal;font-weight:normal;font-stretch:normal;font-size:medium;line-height:normal;font-family:sans-serif;font-variant-ligatures:normal;font-variant-position:normal;font-variant-caps:normal;font-variant-numeric:normal;font-variant-alternates:normal;font-variant-east-asian:normal;font-feature-settings:normal;font-variation-settings:normal;text-indent:0;text-align:start;text-decoration:none;text-decoration-line:none;text-decoration-style:solid;text-decoration-color:#000000;letter-spacing:normal;word-spacing:normal;text-transform:none;writing-mode:lr-tb;direction:ltr;text-orientation:mixed;dominant-baseline:auto;baseline-shift:baseline;text-anchor:start;white-space:normal;shape-padding:0;shape-margin:0;inline-size:0;clip-rule:nonzero;display:inline;overflow:visible;visibility:visible;isolation:auto;mix-blend-mode:normal;color-interpolation:sRGB;color-interpolation-filters:linearRGB;solid-color:#000000;solid-opacity:1;vector-effect:none;fill:#333333;fill-opacity:1;fill-rule:nonzero;stroke:none;stroke-width:2;stroke-linecap:round;stroke-linejoin:round;stroke-miterlimit:4;stroke-dasharray:none;stroke-dashoffset:0;stroke-opacity:1;paint-order:stroke fill markers;color-rendering:auto;image-rendering:auto;shape-rendering:auto;text-rendering:auto;enable-background:accumulate;stop-color:#000000"
       d="m 5,5 v 15.231547 c 2.2182209,-0.950838 4.7998468,-0.181486 6.135367,1.828734 l 1.989042,-0.852571 c -0.534876,-2.353403 0.687634,-4.752995 2.90588,-5.703776 z"
       id="path874" />
  </g>
</svg>

<?xml version="1.0" encoding="UTF-8" standalone="no"?>
<!DOCTYPE svg PUBLIC "-//W3C//DTD SVG 1.1//EN" "http://www.w3.org/Graphics/SVG/1.1/DTD/svg11.dtd">
<svg width="100%" height="100%" viewBox="0 0 32 32" version="1.1" xmlns="http://www.w3.org/2000/svg" xmlns:xlink="http://www.w3.org/1999/xlink" xml:space="preserve" xmlns:serif="http://www.serif.com/" style="fill-rule:evenodd;clip-rule:evenodd;stroke-linejoin:round;stroke-miterlimit:2;">
    <g id="g887">
        <use id="path878" xlink:href="#_Image1" x="0.525" y="1.685" width="20px" height="26px"/>
        <path id="path872" d="M5.004,4C5.003,4 5.001,4 5,4C4.451,4 4,4.451 4,5L4,20.232C4.001,20.781 4.452,21.231 5,21.231C5.136,21.231 5.27,21.204 5.395,21.15C7.175,20.387 9.231,21 10.303,22.613C10.569,23.013 11.088,23.168 11.529,22.979L13.518,22.127C13.96,21.938 14.206,21.455 14.1,20.986C13.67,19.097 14.643,17.187 16.424,16.424C16.792,16.267 17.032,15.904 17.032,15.504C17.032,15.23 16.919,14.968 16.721,14.779L5.689,4.275C5.505,4.1 5.259,4.001 5.004,4ZM6,7.334L14.439,15.371C12.825,16.591 11.954,18.516 12.107,20.557L11.363,20.875C9.991,19.357 7.997,18.66 6,18.988L6,7.334Z" style="fill:white;fill-rule:nonzero;"/>
        <path id="path874" d="M5,5L5,20.232C7.218,19.281 9.8,20.05 11.135,22.06L13.124,21.208C12.59,18.854 13.812,16.455 16.03,15.504L5,5Z" style="fill-rule:nonzero;"/>
    </g>
    <defs>
        <image id="_Image1" width="20px" height="26px" xlink:href="data:image/png;base64,iVBORw0KGgoAAAANSUhEUgAAABQAAAAaCAYAAAC3g3x9AAAACXBIWXMAAA7EAAAOxAGVKw4bAAABcElEQVRIiZWV7XaCMBBELwhia9//TWtRkfQHOzKJ8YOcsycQyHVmd4kN62h4HKmy9nI0NjdAa2tzABUfjZ2Buog+1tut6gRsY94DB2CIcLWbFErdAHwDxwD3AdxkW8A+IEfgB/gKxa7wI2jHWhC3fWApSkduHeDKWrAqkALas9jXfQkEmIBbDdrZtUNVbVfoMcaeOaIKdLAqr7YqFQp6jft7fmtAhzas9t3F05w+Azq0LdZ8dmgC0iugb6y9J5vKYwLmd8Bn0JmlylOoU9VfWq5Bva0GKp2w5QCoVfth1ICJ+qfmOZNVt5sVpUywwquaWPN2ZunDEbjE+gyL/1S8fIkNOoW8dW7xfAT+CmCmUDbOwCkUTSxJ14GrtZFc3YQ1tn9aflRN5C0x2Q/+WowGxC3LimyNpm4fsbNnp4Ard6kEyrLUKX87cttzqC5zdx9Nce2hYujUacmL57lLNWC5ptnPQ8xR9W/hXeeXDgT0ORv/dY6X+i6AL+gAAAAASUVORK5CYII="/>
    </defs>
</svg>
